images/icon-twitter.svg

<svg width="16" height="14" viewBox="0 0 16 14" fill="none" xmlns="http://www.w3.org/2000/svg">
<path d="M10.3467 0.154515C11.9467 -0.34346 13.12 0.4533 13.76 1.25006C14.2933 1.05087 14.9333 0.85168 15.5733 0.65249C15.5733 1.44925 15.04 2.04682 14.72 2.24601C15.4667 2.4452 16 1.84763 16 1.84763C15.8933 2.74398 15.04 3.54074 14.5067 3.73993C14.2933 10.0144 11.52 14.0978 5.01333 13.9982C4.48 13.9982 5.12 13.9982 4.58667 13.9982C4.26667 13.9982 0.64 13.5998 0 12.2055C2.13333 12.4047 3.62667 11.8071 4.37333 11.11C3.52 10.8112 1.81333 10.7116 1.6 8.3213C1.92 8.52049 2.13333 8.62009 2.77333 8.52049C1.6 7.72373 0.32 7.02657 0.426667 5.03467C0.746667 5.33345 1.38667 5.53264 1.70667 5.43305C1.06667 5.23386 -0.213333 2.3456 0.853333 0.85168C2.56 2.54479 4.37333 4.23791 7.57333 4.3375C7.78667 2.24601 8.64 0.85168 10.3467 0.154515Z" fill="black"/>
</svg>

<svg width="16" height="14" viewBox="0 0 16 14" fill="none" xmlns="http://www.w3.org/2000/svg">
  <g clip-path="url(#a)">
    <g clip-path="url(#b)">
      <path d="M10.35.15c1.6-.5 2.77.3 3.41 1.1.53-.2 1.17-.4 1.81-.6a2 2 0 0 1-.85 1.6c.75.2 1.28-.4 1.28-.4-.1.9-.96 1.7-1.5 1.89-.2 6.27-2.98 10.36-9.49 10.26H4.6c-.32 0-3.95-.4-4.59-1.8 2.13.2 3.63-.4 4.37-1.09-.85-.3-2.56-.4-2.77-2.79.32.2.53.3 1.17.2C1.6 7.72.32 7.02.43 5.03c.32.3.96.5 1.28.4C1.07 5.23-.21 2.35.85.85c1.71 1.7 3.52 3.39 6.72 3.49C7.8 2.24 8.64.85 10.35.15Z" fill="#000"/>
    </g>
  </g>
  <defs>
    <clipPath id="a">
      <path fill="#fff" transform="rotate(-180 8 7)" d="M0 0h16v14H0z"/>
    </clipPath>
    <clipPath id="b">
      <path fill="#fff" d="M0 0h16v14H0z"/>
    </clipPath>
  </defs>
</svg>
